packages/storefront-lwc/src/assets/fonts/flags/1x1/fo.svg

<svg height="512" width="512" xmlns="http://www.w3.org/2000/svg" xmlns:xlink="http://www.w3.org/1999/xlink"><clipPath id="a"><path d="m0 0h512v512h-512z"/></clipPath><g clip-path="url(#a)" fill-rule="evenodd" stroke-width="0"><path d="m-78.015 0h708.18v512h-708.18z" fill="#fff"/><path d="m-75.9 199.11h198.29v-199.11h113.31v199.11h396.58v113.78h-396.58v199.11h-113.31v-199.11h-198.29z" fill="#003897"/><path d="m-75.9 227.56h226.62v-227.56h56.653v227.56h424.91v56.89h-424.91v227.56h-56.653v-227.56h-226.62z" fill="#d72828"/></g></svg>

<svg xmlns="http://www.w3.org/2000/svg" height="512" width="512" id="flag-icon-css-fo">
  <defs>
    <clipPath id="a">
      <path fill-opacity=".67" d="M0 0h512v512H0z"/>
    </clipPath>
  </defs>
  <g clip-path="url(#a)" fill-rule="evenodd" stroke-width="0">
    <path fill="#fff" d="M-78.015 0h708.18v512h-708.18z"/>
    <path d="M-75.9 199.11h198.29V0H235.7v199.11h396.58v113.78H235.7V512H122.39V312.89H-75.9V199.11z" fill="#003897"/>
    <path d="M-75.9 227.56h226.62V0h56.653v227.56h424.91v56.89h-424.91v227.56H150.72V284.45H-75.9v-56.89z" fill="#d72828"/>
  </g>
</svg>
